public/images/backgrounds/landing_header_background.svg

<svg width="1000" height="1179" viewBox="0 0 1000 1179" fill="none" xmlns="http://www.w3.org/2000/svg">
<g clip-path="url(#clip0_2557_3)">
<path d="M877.413 -359.944V-335.697C841.313 -358.212 798.456 -371.298 752.703 -371.298C686.679 -371.298 627.027 -344.357 584.17 -300.867L336.293 -49.1647C313.706 -26.0728 282.046 -12.0252 247.297 -12.0252C178.378 -12.0252 122.587 -67.6383 122.587 -136.337C122.587 -205.036 178.571 -260.649 247.297 -260.649C282.239 -260.649 313.706 -246.409 336.293 -223.509L382.046 -176.94L459.845 -256.03L415.637 -300.867C372.78 -344.357 313.127 -371.298 247.104 -371.298C201.351 -371.298 158.687 -358.212 122.394 -335.697V-514.468H0V87.6551H122.394V63.4087C158.687 85.9233 201.544 99.2011 247.104 99.2011C313.127 99.2011 372.78 72.0681 415.637 28.7707L663.513 -223.509C686.1 -246.601 717.761 -260.649 752.51 -260.649C821.429 -260.649 877.22 -205.036 877.22 -136.337C877.22 -67.6383 821.429 -11.8329 752.51 -11.8329C717.568 -11.8329 686.1 -26.2652 663.513 -49.1647L617.953 -95.5412L540.155 -16.451L584.17 28.3857C627.027 71.8755 686.679 98.8161 752.703 98.8161C798.456 98.8161 841.313 85.7307 877.413 63.0236V87.2701H1000V-359.944H877.413Z" fill="url(#paint0_linear_2557_3)" fill-opacity="0.6"/>
<path d="M877.413 -0.264234V23.9824C841.313 1.46773 798.456 -11.6177 752.703 -11.6177C686.679 -11.6177 627.027 15.3228 584.17 58.8127L336.293 310.515C313.706 333.607 282.046 347.655 247.297 347.655C178.378 347.655 122.587 292.041 122.587 223.343C122.587 154.644 178.571 99.0312 247.297 99.0312C282.239 99.0312 313.706 113.271 336.293 136.171L382.046 182.74L459.845 103.65L415.637 58.8127C372.78 15.3228 313.127 -11.6177 247.104 -11.6177C201.351 -11.6177 158.687 1.46773 122.394 23.9824V-154.788H0V447.335H122.394V423.088C158.687 445.603 201.544 458.881 247.104 458.881C313.127 458.881 372.78 431.748 415.637 388.451L663.513 136.171C686.1 113.079 717.761 99.0312 752.51 99.0312C821.429 99.0312 877.22 154.644 877.22 223.343C877.22 292.041 821.429 347.847 752.51 347.847C717.568 347.847 686.1 333.415 663.513 310.515L617.953 264.139L540.155 343.229L584.17 388.066C627.027 431.555 686.679 458.496 752.703 458.496C798.456 458.496 841.313 445.411 877.413 422.703V446.95H1000V-0.264234H877.413Z" fill="url(#paint1_linear_2557_3)" fill-opacity="0.6"/>
<path d="M877.413 359.416V383.662C841.313 361.148 798.456 348.062 752.703 348.062C686.679 348.062 627.027 375.003 584.17 418.493L336.293 670.195C313.706 693.287 282.046 707.334 247.297 707.334C178.378 707.334 122.587 651.721 122.587 583.023C122.587 514.324 178.571 458.711 247.297 458.711C282.239 458.711 313.706 472.951 336.293 495.851L382.046 542.419L459.845 463.329L415.637 418.493C372.78 375.003 313.127 348.062 247.104 348.062C201.351 348.062 158.687 361.148 122.394 383.662V204.892H0V807.015H122.394V782.768C158.687 805.283 201.544 818.561 247.104 818.561C313.127 818.561 372.78 791.428 415.637 748.13L663.513 495.851C686.1 472.759 717.761 458.711 752.51 458.711C821.429 458.711 877.22 514.324 877.22 583.023C877.22 651.721 821.429 707.527 752.51 707.527C717.568 707.527 686.1 693.094 663.513 670.195L617.953 623.818L540.155 702.909L584.17 747.745C627.027 791.235 686.679 818.176 752.703 818.176C798.456 818.176 841.313 805.09 877.413 782.383V806.63H1000V359.416H877.413Z" fill="url(#paint2_linear_2557_3)" fill-opacity="0.6"/>
<path d="M877.413 719.095V743.342C841.313 720.827 798.456 707.742 752.703 707.742C686.679 707.742 627.027 734.683 584.17 778.172L336.293 1029.87C313.706 1052.97 282.046 1067.01 247.297 1067.01C178.378 1067.01 122.587 1011.4 122.587 942.703C122.587 874.004 178.571 818.391 247.297 818.391C282.239 818.391 313.706 832.631 336.293 855.531L382.046 902.099L459.845 823.009L415.637 778.172C372.78 734.683 313.127 707.742 247.104 707.742C201.351 707.742 158.687 720.827 122.394 743.342V564.572H0V1166.69H122.394V1142.45C158.687 1164.96 201.544 1178.24 247.104 1178.24C313.127 1178.24 372.78 1151.11 415.637 1107.81L663.513 855.531C686.1 832.439 717.761 818.391 752.51 818.391C821.429 818.391 877.22 874.004 877.22 942.703C877.22 1011.4 821.429 1067.21 752.51 1067.21C717.568 1067.21 686.1 1052.77 663.513 1029.87L617.953 983.498L540.155 1062.59L584.17 1107.43C627.027 1150.92 686.679 1177.86 752.703 1177.86C798.456 1177.86 841.313 1164.77 877.413 1142.06V1166.31H1000V719.095H877.413Z" fill="url(#paint3_linear_2557_3)" fill-opacity="0.6"/>
<rect y="-20" width="1000" height="191" fill="url(#paint4_radial_2557_3)" fill-opacity="0.2"/>
</g>
<defs>
<linearGradient id="paint0_linear_2557_3" x1="500" y1="-514.468" x2="500" y2="1178.24" gradientUnits="userSpaceOnUse">
<stop stop-color="#29252B"/>
<stop offset="1" stop-color="#29252B" stop-opacity="0"/>
</linearGradient>
<linearGradient id="paint1_linear_2557_3" x1="500" y1="-514.468" x2="500" y2="1178.24" gradientUnits="userSpaceOnUse">
<stop stop-color="#29252B"/>
<stop offset="1" stop-color="#29252B" stop-opacity="0"/>
</linearGradient>
<linearGradient id="paint2_linear_2557_3" x1="500" y1="-514.468" x2="500" y2="1178.24" gradientUnits="userSpaceOnUse">
<stop stop-color="#29252B"/>
<stop offset="1" stop-color="#29252B" stop-opacity="0"/>
</linearGradient>
<linearGradient id="paint3_linear_2557_3" x1="500" y1="-514.468" x2="500" y2="1178.24" gradientUnits="userSpaceOnUse">
<stop stop-color="#29252B"/>
<stop offset="1" stop-color="#29252B" stop-opacity="0"/>
</linearGradient>
<radialGradient id="paint4_radial_2557_3" cx="0" cy="0" r="1" gradientUnits="userSpaceOnUse" gradientTransform="translate(500 -20) rotate(90) scale(95 497.382)">
<stop stop-color="#A9A9A9"/>
<stop offset="1" stop-opacity="0"/>
</radialGradient>
<clipPath id="clip0_2557_3">
<rect width="1000" height="1178.24" fill="white"/>
</clipPath>
</defs>
</svg>

<svg xmlns="http://www.w3.org/2000/svg" width="1000" height="1179" fill="none"><g clip-path="url(#a)"><path fill="url(#b)" fill-opacity=".6" d="M877.413-359.944v24.247c-36.1-22.515-78.957-35.601-124.71-35.601-66.024 0-125.676 26.941-168.533 70.431L336.293-49.165c-22.587 23.092-54.247 37.14-88.996 37.14-68.919 0-124.71-55.613-124.71-124.312s55.984-124.312 124.71-124.312c34.942 0 66.409 14.24 88.996 37.14l45.753 46.569 77.799-79.09-44.208-44.837c-42.857-43.49-102.51-70.431-168.533-70.431-45.753 0-88.417 13.086-124.71 35.601v-178.771H0V87.655h122.394V63.41c36.293 22.514 79.15 35.792 124.71 35.792 66.023 0 125.676-27.133 168.533-70.43l247.876-252.28c22.587-23.092 54.248-37.14 88.997-37.14 68.919 0 124.71 55.613 124.71 124.312S821.429-11.833 752.51-11.833c-34.942 0-66.41-14.432-88.997-37.332l-45.56-46.376-77.798 79.09 44.015 44.837c42.857 43.49 102.509 70.43 168.533 70.43 45.753 0 88.61-13.085 124.71-35.792V87.27H1000v-447.214z"/><path fill="url(#c)" fill-opacity=".6" d="M877.413-.264v24.246c-36.1-22.514-78.957-35.6-124.71-35.6-66.024 0-125.676 26.94-168.533 70.43L336.293 310.516c-22.587 23.092-54.247 37.14-88.996 37.14-68.919 0-124.71-55.614-124.71-124.312s55.984-124.312 124.71-124.312c34.942 0 66.409 14.24 88.996 37.14l45.753 46.569 77.799-79.09-44.208-44.837c-42.857-43.49-102.51-70.43-168.533-70.43-45.753 0-88.417 13.085-124.71 35.6v-178.771H0v602.123h122.394v-24.247c36.293 22.515 79.15 35.793 124.71 35.793 66.023 0 125.676-27.133 168.533-70.43l247.876-252.28c22.587-23.092 54.248-37.14 88.997-37.14 68.919 0 124.71 55.613 124.71 124.312 0 68.698-55.791 124.504-124.71 124.504-34.942 0-66.41-14.432-88.997-37.332l-45.56-46.376-77.798 79.09 44.015 44.837c42.857 43.489 102.509 70.43 168.533 70.43 45.753 0 88.61-13.085 124.71-35.793v24.247H1000V-.264z"/><path fill="url(#d)" fill-opacity=".6" d="M877.413 359.416v24.246c-36.1-22.514-78.957-35.6-124.71-35.6-66.024 0-125.676 26.941-168.533 70.431L336.293 670.195c-22.587 23.092-54.247 37.139-88.996 37.139-68.919 0-124.71-55.613-124.71-124.311s55.984-124.312 124.71-124.312c34.942 0 66.409 14.24 88.996 37.14l45.753 46.568 77.799-79.09-44.208-44.836c-42.857-43.49-102.51-70.431-168.533-70.431-45.753 0-88.417 13.086-124.71 35.6v-178.77H0v602.123h122.394v-24.247c36.293 22.515 79.15 35.793 124.71 35.793 66.023 0 125.676-27.133 168.533-70.431l247.876-252.279c22.587-23.092 54.248-37.14 88.997-37.14 68.919 0 124.71 55.613 124.71 124.312 0 68.698-55.791 124.504-124.71 124.504-34.942 0-66.41-14.433-88.997-37.332l-45.56-46.377-77.798 79.091 44.015 44.836c42.857 43.49 102.509 70.431 168.533 70.431 45.753 0 88.61-13.086 124.71-35.793v24.247H1000V359.416z"/><path fill="url(#e)" fill-opacity=".6" d="M877.413 719.095v24.247c-36.1-22.515-78.957-35.6-124.71-35.6-66.024 0-125.676 26.941-168.533 70.43L336.293 1029.87c-22.587 23.1-54.247 37.14-88.996 37.14-68.919 0-124.71-55.61-124.71-124.307 0-68.699 55.984-124.312 124.71-124.312 34.942 0 66.409 14.24 88.996 37.14l45.753 46.568 77.799-79.09-44.208-44.837c-42.857-43.489-102.51-70.43-168.533-70.43-45.753 0-88.417 13.085-124.71 35.6v-178.77H0v602.118h122.394v-24.24c36.293 22.51 79.15 35.79 124.71 35.79 66.023 0 125.676-27.13 168.533-70.43l247.876-252.279c22.587-23.092 54.248-37.14 88.997-37.14 68.919 0 124.71 55.613 124.71 124.312 0 68.697-55.791 124.507-124.71 124.507-34.942 0-66.41-14.44-88.997-37.34l-45.56-46.372-77.798 79.092 44.015 44.84c42.857 43.49 102.509 70.43 168.533 70.43 45.753 0 88.61-13.09 124.71-35.8v24.25H1000V719.095z"/><path fill="url(#f)" fill-opacity=".2" d="M0-20h1000v191H0z"/></g><defs><linearGradient id="b" x1="500" x2="500" y1="-514.468" y2="1178.24" gradientUnits="userSpaceOnUse"><stop stop-color="#29252B"/><stop offset="1" stop-color="#29252B" stop-opacity="0"/></linearGradient><linearGradient id="c" x1="500" x2="500" y1="-514.468" y2="1178.24" gradientUnits="userSpaceOnUse"><stop stop-color="#29252B"/><stop offset="1" stop-color="#29252B" stop-opacity="0"/></linearGradient><linearGradient id="d" x1="500" x2="500" y1="-514.468" y2="1178.24" gradientUnits="userSpaceOnUse"><stop stop-color="#29252B"/><stop offset="1" stop-color="#29252B" stop-opacity="0"/></linearGradient><linearGradient id="e" x1="500" x2="500" y1="-514.468" y2="1178.24" gradientUnits="userSpaceOnUse"><stop stop-color="#29252B"/><stop offset="1" stop-color="#29252B" stop-opacity="0"/></linearGradient><radialGradient id="f" cx="0" cy="0" r="1" gradientTransform="matrix(0 95 -497.382 0 500 -20)" gradientUnits="userSpaceOnUse"><stop stop-color="#A9A9A9"/><stop offset="1" stop-opacity="0"/></radialGradient><clipPath id="a"><path fill="#fff" d="M0 0h1000v1178.24H0z"/></clipPath></defs></svg>
